X:1
T:Wilst wissen wer
T:André Vierendeels
T:Melody by Georg Vogler (1625) (Soprano voice) 
T:Source : Catechismus---Würzburg---J.Volmari---1652. Editor : André Vierendeels (12/10/17).
T:Notes : Original clef : C1, other voices supplied editarially Original note values have been halved Text Middle German 
T:Wilst wissen wer
T:©
T:©
C:André Vierendeels
Z:©
%%score [ 1 2 3 ]
L:1/8
Q:1/4=120
M:2/2
K:C
V:1 treble nm="Soprano" snm="S"
V:2 treble-8 nm="Tenor" snm="T"
V:3 bass nm="Bass" snm="B"
V:1
"^1)" E4 G2 A2 | G4 c4 | B2 A2 G4 | z4 G4 | A2 G2 E2 F2 | E4 D4 | C4 z4 | G4 A2 G2 | c2 B2 c2 A2 | %9
w: Wilst wis- sen|wer ein|rech- ter Christ|und|nicht ein fal- scher|Maul Christ|ist:|Ca- tho- lisch|o- der all- ge-|
w: Was all- ge-|mein, ist|wol- ge- gründ,|von|den Pro- phe- ten|längst ver-|künd,|mit Wun- der-|zei- chen wol be-|
 !fermata!^G4 A4 | G2 F2 E2 A2 | G2 F2 E4 | z4 G4 | A2 B2 c2 G2 | A2 B2 c4 | z4 c4 | B2 A2 G2 A2 | %17
w: mein, soll|dir ein gwis- ses|Zei- chen seyn,|weil|die- ser Nam al-|lein ver- trawt|der|Kir- chen, wel- che|
w: wehrt: der-|se- big Glaub lehrt|Ei- nig- keit|weil|die- ser Nam al-|lein ver- trawt|der|Kir- chen wel- che|
 c4 B4 | A8 |] %19
w: Chri- sti|Braut.|
w: Chri- sti|Braut.|
V:2
"^2)""^1)" c4 B2 c2 | d4 e4 | d2 f2 d4 | z4 B4 | d2 d2 c2 A2 | c4 A4 | c4 z4 | B4 d2 d2 | %8
w: Wilst wiw- sen|wer ein|rech- ter Christ|und|nicht ein fal- scher|Maul Christ|ist:|Ca- tho- lisch|
w: Der wah- re|Glaub, ist|Rö- misch gnennt:|der|Wahr- heit Seul und|Fun- da-|ment|wie uns der|
 e2 d2 e2 e2 | !fermata!B4 c4 | d2 A2 B2 c2 | B2 c2 c4 | z4 d4 | c2 d2 e2 c2 | A2 e2 c4 | z4 e4 | %16
w: o- der all- ge-|mein, soll|dir ein gwis- ses|Zei- chen seyn,|weil|die- ser Nam al-|lein ver- trawt|der|
w: lieb A- po- stel|lehrt: in|sei- nen Schriff- ten|un- ver- sehrt:|wer|den nicht hat der|is ein Heyd,|das|
 d2 d2 d2 A2 | e2 c2 e4 | e8 |] %19
w: Kir- chen, wel- che|Chri- * sti|Braut.|
w: is so gnug als|tau- * send|Eyd.|
V:3
"^3)""^1)""^4)" C,4 G,2 F,2 | G,4 C,4 | G,2 D,2 G,,4 | z4 G,4 | D,2 G,2 C,2 D,2 | C,4 D,4 | %6
w: Wilst wis- sen|wer ein|rech- ter Christ|und|nicht ein fal- scher|Maul Christ|
w: Die hei- lig|Schrifft, der|wahr Ver- stand,|ist|gantz in der Kir-|* chen|
 C,4 z4 | G,,4 D,2 G,2 | C,2 G,2 E,2 A,,2 | !fermata!E,4 A,,4 | G,,2 D,2 G,2 F,2 | G,2 F,2 A,4 | %12
w: ist:|Ca- tho- lisch|o- der all- ge-|mein, soll|dir ein gwis- ses|Zei- chen seyn,|
w: Hand.|Die zwölff Ar-|ti- ckel wie sie|seynd, hat|sie uns ge- ben|in die Händ:|
 z4 B,,4 | A,,2 G,,2 C,2 E,2 | D,2 G,2 F,4 | z4 C,4 | G,2 D,2 B,,2 D,2 | C,2 E,2 A,2 ^G,2 | A,8 |] %19
w: weil|die- ser Nam al-|lein ver- trawt|der|Kir- chen, wel- che|Chri- * sti _|Braut.|
w: hie|wird al- lein Chri-|stus be- kennt,|da|seyn al- lein die|Sa- * cra- *|ment.|

